templates/main/source/svg/icons/basket-small.svg

<svg xmlns="http://www.w3.org/2000/svg" width="28" height="22"><path fill-rule="evenodd" fill="#FFF" d="M27.934 10.022c-.03.229-.147.459-.269.662-.182.302-.482.486-.792.633a1.63 1.63 0 0 1-.513.132c-.245.027-.257.037-.29.278-.031.228-.094.452-.142.678-.056.261-.108.523-.167.783-.125.545-.256 1.089-.38 1.635-.052.23-.089.464-.138.695-.047.226-.101.451-.15.677-.053.24-.102.48-.157.72-.056.25-.117.499-.175.749-.043.185-.086.37-.124.556-.079.381-.144.766-.233 1.145-.091.39-.173.787-.315 1.158a2.212 2.212 0 0 1-.991 1.139c-.437.252-.905.338-1.409.337-5.175-.007-10.35-.005-15.525-.004-.407 0-.779-.113-1.143-.295a1.606 1.606 0 0 1-.603-.505.343.343 0 0 0-.074-.078c-.286-.208-.373-.525-.459-.845-.023-.087-.069-.168-.098-.254-.032-.097-.055-.196-.086-.307l-.088.017c.004-.037.001-.065.012-.085.095-.166.051-.328-.007-.491a1.456 1.456 0 0 1-.057-.192c-.1-.461-.199-.922-.296-1.383-.083-.392-.156-.786-.246-1.176-.086-.375-.192-.745-.282-1.119-.018-.073.005-.155-.008-.229-.042-.223-.093-.443-.139-.665-.061-.292-.12-.583-.182-.875-.039-.186-.076-.372-.122-.556-.092-.368-.189-.736-.284-1.104l-.006-.03c-.065-.334-.065-.332-.385-.398a2.054 2.054 0 0 1-.87-.396c-.237-.188-.381-.441-.521-.711C-.1 9.7.014 9.042.04 8.404c.019-.468.208-.914.567-1.249.338-.316.735-.502 1.199-.504 1.318-.005 2.636-.002 3.954-.002.196 0 .234.04.235.234v.822c-.001.167-.057.219-.224.219-1.113-.001-2.227-.006-3.34-.001a5.206 5.206 0 0 0-.67.057c-.259.034-.409.164-.426.427-.028.416-.036.836-.014 1.253a.492.492 0 0 0 .512.466c1.134-.007 2.267.01 3.4.013.125.001.15.068.151.165.002.216-.004.432-.002.648.002.113.011.227.022.339.012.138-.041.188-.173.186-.617-.011-1.235-.018-1.852-.024-.108-.001-.141.048-.117.159.085.376.158.754.241 1.131.046.207.115.41.155.618.055.29.185.563.171.871-.006.123.054.25.083.375.055.24.111.481.164.722.05.225.089.454.146.678.064.258.148.51.213.768.047.184.078.371.112.558.039.212.067.426.114.636.05.225.122.446.177.67.051.21.089.422.137.633.06.259.101.527.192.775.131.355.417.552.78.612.195.033.397.033.595.034h15.096c.189 0 .385.007.564-.042.311-.086.567-.282.681-.594.103-.283.155-.584.225-.878.096-.395.189-.791.28-1.187.039-.165.072-.332.105-.499.046-.237.084-.475.136-.711.083-.37.179-.738.262-1.109.088-.396.167-.795.254-1.191.049-.221.109-.44.158-.661.053-.234.098-.47.147-.705.047-.227.096-.453.144-.68.057-.266.111-.533.173-.798.034-.144-.026-.184-.158-.184-.567.003-1.134.001-1.701.002-.221 0-.237-.015-.237-.235v-.868c.001-.179.025-.204.206-.204h3.25c.156 0 .322-.002.412-.151.079-.131.159-.281.172-.428.026-.297-.003-.599.01-.898.025-.568-.288-.747-.745-.748a774.194 774.194 0 0 0-3.048-.003c-.215 0-.429.008-.643.014-.151.004-.221-.06-.224-.226a39.015 39.015 0 0 1 0-.838c.001-.172.05-.221.221-.222.276-.003.551-.001.827-.001.991 0 1.983.004 2.974-.001.492-.002.934.124 1.307.462.206.185.35.408.459.662.126.297.155.61.152.923-.005.444-.01.89-.067 1.328zm-7.635 2.457c.11.001.156.069.161.168.005.114.003.228.003.342v5.209c0 .253-.042.295-.296.295l-.735.001c-.226-.001-.257-.031-.257-.26l-.001-5.256c0-.088-.003-.176-.009-.263-.009-.137.063-.232.2-.235.312-.005.623-.001.934-.001zm.298-3.209c-.141.056-.226.014-.283-.132-.253-.657-.503-1.314-.76-1.969-.307-.779-.618-1.557-.929-2.335-.264-.662-.532-1.324-.795-1.987-.283-.711-.563-1.424-.844-2.135C16.9.491 16.929.42 17.15.33c.236-.097.473-.19.71-.283.038-.015.079-.022.149-.042.039.033.114.065.136.12.156.38.298.765.448 1.147.152.387.31.772.461 1.16.164.42.32.845.487 1.264.115.291.248.575.363.865.154.386.296.776.449 1.163.192.488.391.972.586 1.459.119.3.235.602.352.903.076.195.162.388.222.588.056.187.03.212-.152.284-.256.102-.509.209-.764.312zm-3.251 3.209c.175.001.228.064.219.235-.008.139-.01.279-.01.418v5.112c0 .224-.024.248-.245.249-.25.001-.501.001-.751-.001-.222-.001-.293-.072-.293-.298l-.001-2.726v-2.68c0-.263.047-.31.3-.31.26 0 .521-.001.781.001zm-3.778.006c.305.006.61.009.915.005.132-.002.178.073.178.181.004 1.559.005 3.118.007 4.677v.882c0 .212-.052.263-.265.264h-.735c-.253-.001-.286-.033-.286-.283v-2.713-2.636c0-.072-.006-.147.012-.215.021-.086.059-.164.174-.162zm-2.752-.006c.26.001.52-.002.779.016.055.004.121.081.15.14.027.055.014.131.014.198v5.394c0 .239-.029.267-.265.267-.261-.001-.521-.006-.781 0-.138.003-.197-.063-.207-.191-.004-.056-.004-.113-.004-.17l.001-5.332c0-.292.029-.324.313-.322zm7.899-5.568c-.009.252-.002.504.001.757.003.236-.065.299-.292.269a2.35 2.35 0 0 0-.29-.017H9.738c-.071 0-.143.008-.214.012-.128.008-.203-.076-.201-.208.006-.294.012-.588.004-.882-.004-.129.049-.181.163-.192.041-.004.082-.002.123-.002h8.855c.22 0 .255.046.247.263zM7.831 12.479c.285 0 .571.005.857.006.129 0 .185.076.188.195.005.17.002.341.002.511v5.038c0 .234-.027.263-.251.265-.271.001-.542.002-.812-.002-.183-.002-.224-.047-.224-.232v-5.534c0-.207.039-.247.24-.247zm2.608-10.2c-.205.52-.4 1.045-.605 1.565-.115.291-.247.575-.362.867-.125.314-.234.635-.357.95-.108.278-.231.549-.341.826-.164.41-.322.823-.485 1.234-.121.305-.249.609-.37.914-.061.152-.112.309-.172.462-.081.211-.16.238-.363.151a28.488 28.488 0 0 0-.746-.307c-.146-.057-.165-.107-.106-.258.187-.478.367-.959.554-1.437.114-.292.239-.579.355-.87.162-.405.319-.812.479-1.218l.447-1.132c.125-.315.248-.631.374-.946.128-.319.261-.636.386-.956.126-.324.244-.652.371-.977.073-.187.157-.369.233-.554.057-.142.1-.291.167-.428.033-.068.105-.116.151-.165.091.031.144.047.196.068.241.096.481.195.723.288.127.049.183.151.132.278-.219.549-.444 1.096-.661 1.645z"/></svg>

<svg
 xmlns="http://www.w3.org/2000/svg"
 xmlns:xlink="http://www.w3.org/1999/xlink"
 width="28px" height="22px">
<path fill-rule="evenodd"  fill="rgb(255, 255, 255)"
 d="M27.934,10.022 C27.904,10.251 27.787,10.481 27.665,10.684 C27.483,10.986 27.183,11.170 26.873,11.317 C26.716,11.392 26.535,11.429 26.360,11.449 C26.115,11.476 26.103,11.486 26.070,11.727 C26.039,11.955 25.976,12.179 25.928,12.405 C25.872,12.666 25.820,12.928 25.761,13.188 C25.636,13.733 25.505,14.277 25.381,14.823 C25.329,15.053 25.292,15.287 25.243,15.518 C25.196,15.744 25.142,15.969 25.093,16.195 C25.040,16.435 24.991,16.675 24.936,16.915 C24.880,17.165 24.819,17.414 24.761,17.664 C24.718,17.849 24.675,18.034 24.637,18.220 C24.558,18.601 24.493,18.986 24.404,19.365 C24.313,19.755 24.231,20.152 24.089,20.523 C23.900,21.015 23.558,21.398 23.098,21.662 C22.661,21.914 22.193,22.000 21.689,21.999 C16.514,21.992 11.339,21.994 6.164,21.995 C5.757,21.995 5.385,21.882 5.021,21.700 C4.777,21.577 4.576,21.416 4.418,21.195 C4.397,21.166 4.373,21.138 4.344,21.117 C4.058,20.909 3.971,20.592 3.885,20.272 C3.862,20.185 3.816,20.104 3.787,20.018 C3.755,19.921 3.732,19.822 3.701,19.711 C3.676,19.715 3.650,19.721 3.613,19.728 C3.617,19.691 3.614,19.663 3.625,19.643 C3.720,19.477 3.676,19.315 3.618,19.152 C3.595,19.089 3.575,19.025 3.561,18.960 C3.461,18.499 3.362,18.038 3.265,17.577 C3.182,17.185 3.109,16.791 3.019,16.401 C2.933,16.026 2.827,15.656 2.737,15.282 C2.719,15.209 2.742,15.127 2.729,15.053 C2.687,14.830 2.636,14.610 2.590,14.388 C2.529,14.096 2.470,13.805 2.408,13.513 C2.369,13.327 2.332,13.141 2.286,12.957 C2.194,12.589 2.097,12.221 2.002,11.853 C2.000,11.843 1.998,11.833 1.996,11.823 C1.931,11.489 1.931,11.491 1.611,11.425 C1.292,11.359 0.998,11.232 0.741,11.029 C0.504,10.841 0.360,10.588 0.220,10.318 C-0.100,9.700 0.014,9.042 0.040,8.404 C0.059,7.936 0.248,7.490 0.607,7.155 C0.945,6.839 1.342,6.653 1.806,6.651 C3.124,6.646 4.442,6.649 5.760,6.649 C5.956,6.649 5.994,6.689 5.995,6.883 C5.996,7.158 5.996,7.431 5.995,7.705 C5.994,7.872 5.938,7.924 5.771,7.924 C4.658,7.923 3.544,7.918 2.431,7.923 C2.208,7.924 1.983,7.950 1.761,7.980 C1.502,8.014 1.352,8.144 1.335,8.407 C1.307,8.823 1.299,9.243 1.321,9.660 C1.334,9.898 1.522,10.128 1.833,10.126 C2.967,10.119 4.100,10.136 5.233,10.139 C5.358,10.140 5.383,10.207 5.384,10.304 C5.386,10.520 5.380,10.736 5.382,10.952 C5.384,11.065 5.393,11.179 5.404,11.291 C5.416,11.429 5.363,11.479 5.231,11.477 C4.614,11.466 3.996,11.459 3.379,11.453 C3.271,11.452 3.238,11.501 3.262,11.612 C3.347,11.988 3.420,12.366 3.503,12.743 C3.549,12.950 3.618,13.153 3.658,13.361 C3.713,13.651 3.843,13.924 3.829,14.232 C3.823,14.355 3.883,14.482 3.912,14.607 C3.967,14.847 4.023,15.088 4.076,15.329 C4.126,15.554 4.165,15.783 4.222,16.007 C4.286,16.265 4.370,16.517 4.435,16.775 C4.482,16.959 4.513,17.146 4.547,17.333 C4.586,17.545 4.614,17.759 4.661,17.969 C4.711,18.194 4.783,18.415 4.838,18.639 C4.889,18.849 4.927,19.061 4.975,19.272 C5.035,19.531 5.076,19.799 5.167,20.047 C5.298,20.402 5.584,20.599 5.947,20.659 C6.142,20.692 6.344,20.692 6.542,20.693 C11.574,20.694 16.606,20.694 21.638,20.693 C21.827,20.693 22.023,20.700 22.202,20.651 C22.513,20.565 22.769,20.369 22.883,20.057 C22.986,19.774 23.038,19.473 23.108,19.179 C23.204,18.784 23.297,18.388 23.388,17.992 C23.427,17.827 23.460,17.660 23.493,17.493 C23.539,17.256 23.577,17.018 23.629,16.782 C23.712,16.412 23.808,16.044 23.891,15.673 C23.979,15.277 24.058,14.878 24.145,14.482 C24.194,14.261 24.254,14.042 24.303,13.821 C24.356,13.587 24.401,13.351 24.450,13.116 C24.497,12.889 24.546,12.663 24.594,12.436 C24.651,12.170 24.705,11.903 24.767,11.638 C24.801,11.494 24.741,11.454 24.609,11.454 C24.042,11.457 23.475,11.455 22.908,11.456 C22.687,11.456 22.671,11.441 22.671,11.221 C22.671,10.932 22.670,10.642 22.671,10.353 C22.672,10.174 22.696,10.149 22.877,10.149 C23.961,10.149 25.043,10.149 26.127,10.149 C26.283,10.149 26.449,10.147 26.539,9.998 C26.618,9.867 26.698,9.717 26.711,9.570 C26.737,9.273 26.708,8.971 26.721,8.672 C26.746,8.104 26.433,7.925 25.976,7.924 C24.960,7.921 23.944,7.920 22.928,7.921 C22.713,7.921 22.499,7.929 22.285,7.935 C22.134,7.939 22.064,7.875 22.061,7.709 C22.058,7.430 22.058,7.151 22.061,6.871 C22.062,6.699 22.111,6.650 22.282,6.649 C22.558,6.646 22.833,6.648 23.109,6.648 C24.100,6.648 25.092,6.652 26.083,6.647 C26.575,6.645 27.017,6.771 27.390,7.109 C27.596,7.294 27.740,7.517 27.849,7.771 C27.975,8.068 28.004,8.381 28.001,8.694 C27.996,9.138 27.991,9.584 27.934,10.022 ZM20.299,12.479 C20.409,12.480 20.455,12.548 20.460,12.647 C20.465,12.761 20.463,12.875 20.463,12.989 C20.463,13.826 20.463,14.663 20.463,15.500 C20.463,16.399 20.463,17.299 20.463,18.198 C20.463,18.451 20.421,18.493 20.167,18.493 C19.922,18.493 19.677,18.494 19.432,18.494 C19.206,18.493 19.175,18.463 19.175,18.234 C19.175,16.482 19.175,14.730 19.174,12.978 C19.174,12.890 19.171,12.802 19.165,12.715 C19.156,12.578 19.228,12.483 19.365,12.480 C19.677,12.475 19.988,12.479 20.299,12.479 ZM20.597,9.270 C20.456,9.326 20.371,9.284 20.314,9.138 C20.061,8.481 19.811,7.824 19.554,7.169 C19.247,6.390 18.936,5.612 18.625,4.834 C18.361,4.172 18.093,3.510 17.830,2.847 C17.547,2.136 17.267,1.423 16.986,0.712 C16.900,0.491 16.929,0.420 17.150,0.330 C17.386,0.233 17.623,0.140 17.860,0.047 C17.898,0.032 17.939,0.025 18.009,0.005 C18.048,0.038 18.123,0.070 18.145,0.125 C18.301,0.505 18.443,0.890 18.593,1.272 C18.745,1.659 18.903,2.044 19.054,2.432 C19.218,2.852 19.374,3.277 19.541,3.696 C19.656,3.987 19.789,4.271 19.904,4.561 C20.058,4.947 20.200,5.337 20.353,5.724 C20.545,6.212 20.744,6.696 20.939,7.183 C21.058,7.483 21.174,7.785 21.291,8.086 C21.367,8.281 21.453,8.474 21.513,8.674 C21.569,8.861 21.543,8.886 21.361,8.958 C21.105,9.060 20.852,9.167 20.597,9.270 ZM17.346,12.479 C17.521,12.480 17.574,12.543 17.565,12.714 C17.557,12.853 17.555,12.993 17.555,13.132 C17.555,14.836 17.555,16.540 17.555,18.244 C17.555,18.468 17.531,18.492 17.310,18.493 C17.060,18.494 16.809,18.494 16.559,18.492 C16.337,18.491 16.266,18.420 16.266,18.194 C16.265,17.285 16.265,16.377 16.265,15.468 C16.265,14.575 16.265,13.681 16.265,12.788 C16.265,12.525 16.312,12.478 16.565,12.478 C16.825,12.478 17.086,12.477 17.346,12.479 ZM13.568,12.485 C13.873,12.491 14.178,12.494 14.483,12.490 C14.615,12.488 14.661,12.563 14.661,12.671 C14.665,14.230 14.666,15.789 14.668,17.348 C14.668,17.642 14.669,17.936 14.668,18.230 C14.668,18.442 14.616,18.493 14.403,18.494 C14.158,18.494 13.913,18.494 13.668,18.494 C13.415,18.493 13.382,18.461 13.382,18.211 C13.382,17.307 13.382,16.402 13.382,15.498 C13.382,14.619 13.381,13.741 13.382,12.862 C13.382,12.790 13.376,12.715 13.394,12.647 C13.415,12.561 13.453,12.483 13.568,12.485 ZM10.816,12.479 C11.076,12.480 11.336,12.477 11.595,12.495 C11.650,12.499 11.716,12.576 11.745,12.635 C11.772,12.690 11.759,12.766 11.759,12.833 C11.759,13.722 11.759,14.611 11.759,15.499 C11.759,16.409 11.759,17.318 11.759,18.227 C11.759,18.466 11.730,18.494 11.494,18.494 C11.233,18.493 10.973,18.488 10.713,18.494 C10.575,18.497 10.516,18.431 10.506,18.303 C10.502,18.247 10.502,18.190 10.502,18.133 C10.502,16.355 10.502,14.578 10.503,12.801 C10.503,12.509 10.532,12.477 10.816,12.479 ZM18.715,6.911 C18.706,7.163 18.713,7.415 18.716,7.668 C18.719,7.904 18.651,7.967 18.424,7.937 C18.328,7.925 18.230,7.920 18.134,7.920 C15.335,7.919 12.537,7.919 9.738,7.920 C9.667,7.920 9.595,7.928 9.524,7.932 C9.396,7.940 9.321,7.856 9.323,7.724 C9.329,7.430 9.335,7.136 9.327,6.842 C9.323,6.713 9.376,6.661 9.490,6.650 C9.531,6.646 9.572,6.648 9.613,6.648 C11.084,6.648 12.554,6.648 14.025,6.648 C15.506,6.648 16.987,6.648 18.468,6.648 C18.688,6.648 18.723,6.694 18.715,6.911 ZM7.831,12.479 C8.116,12.479 8.402,12.484 8.688,12.485 C8.817,12.485 8.873,12.561 8.876,12.680 C8.881,12.850 8.878,13.021 8.878,13.191 C8.878,13.966 8.878,14.741 8.878,15.516 C8.878,16.421 8.878,17.325 8.878,18.229 C8.878,18.463 8.851,18.492 8.627,18.494 C8.356,18.495 8.085,18.496 7.815,18.492 C7.632,18.490 7.591,18.445 7.591,18.260 C7.590,16.415 7.590,14.570 7.591,12.726 C7.591,12.519 7.630,12.479 7.831,12.479 ZM10.439,2.279 C10.234,2.799 10.039,3.324 9.834,3.844 C9.719,4.135 9.587,4.419 9.472,4.711 C9.347,5.025 9.238,5.346 9.115,5.661 C9.007,5.939 8.884,6.210 8.774,6.487 C8.610,6.897 8.452,7.310 8.289,7.721 C8.168,8.026 8.040,8.330 7.919,8.635 C7.858,8.787 7.807,8.944 7.747,9.097 C7.666,9.308 7.587,9.335 7.384,9.248 C7.137,9.142 6.888,9.040 6.638,8.941 C6.492,8.884 6.473,8.834 6.532,8.683 C6.719,8.205 6.899,7.724 7.086,7.246 C7.200,6.954 7.325,6.667 7.441,6.376 C7.603,5.971 7.760,5.564 7.920,5.158 C8.069,4.781 8.218,4.404 8.367,4.026 C8.492,3.711 8.615,3.395 8.741,3.080 C8.869,2.761 9.002,2.444 9.127,2.124 C9.253,1.800 9.371,1.472 9.498,1.147 C9.571,0.960 9.655,0.778 9.731,0.593 C9.788,0.451 9.831,0.302 9.898,0.165 C9.931,0.097 10.003,0.049 10.049,-0.000 C10.140,0.031 10.193,0.047 10.245,0.068 C10.486,0.164 10.726,0.263 10.968,0.356 C11.095,0.405 11.151,0.507 11.100,0.634 C10.881,1.183 10.656,1.730 10.439,2.279 Z"/>
</svg>
